X: 1098
T: Hüseynî Etüd
C: Hasan Esen
O: Turkey
F: http://compmusic.upf.edu/node/140
N: huseyni--etud--sofyan----hasan_esen
N: makam= huseyni
N: form= etud
N: usul= sofyan = 4/4
M: 4/4
L: 1/16
K: C _2/4B ^3/4f  
Q: 1/4=60
%%MIDI tuningsystem comma53
A4 c2d2 e4 z4  | d2g2 f2g2 e4 z4  | d2g2 f2g2 f2g2 f2e2  | \
w:   |   |   | 
e12 z4  | 
w:   | 
e2d2 d2c2 d4 z4  | d2c2 c2B2 c4 z4  | \
w:   |   | 
c2B2 c2d2 e2d2 c2B2  | A12 z4  | 
w:   |   | 
A2g2 f2g2 f2g2 f2e2  | e12 a4  | e2d2 d2c2 d4 e4  | \
w:   |   |   | 
e12 z4  | e2f2 g2f2 g2f2 g2a2  | 
w:   |   | 
a2g2 f2e2 d4 z4  | d2e2 d2c2 e2d2 c2B2  | \
w:   |   | 
c12 z4  | c4 d4 d4 c4  | d2e2 e2d2 c4 z4  | 
w:   |   |   | 
B4 c4 c4 B4  | c2d2 d2c2 B4 z4  | A4 B4 B4 A4  | \
w:   |   |   | 
B2c2 c2B2 A4 z4  | e2d2 d2c2 c2B2 B2A2  | 
w:   |   | 
A12 z4  | |


